X:1
T:Title
%%score { 1 | 2 }
L:1/8
M:6/8
K:Ab
V:1 treble nm="Grand Piano"
V:2 bass 
V:1
 z3 z2[Q:1/4=90] [CE] | [Ec][Ec][Ec] [CA][CA][CA] | BBB F2 F | GGF EEd |[M:5/8] [Ec]-[Ec]- [Ec]3 | %5
[M:1/8] [CE] |[M:3/4] [Ec][Ec] [Ec][CA] [CA][CA] | BB B F2 [Fd] | cc AB AG | [CEA]6 | c3 e2 c | %11
 [Ac][GB] [GB] [GB]2 [Ac] | [Gd][Gd] [Gd][GB] [FA][GB] | c6 | c3 A2 c | [Fe][Fd] [Fd] [Fd]2 [Fd] | %16
 cc AB AG |[M:5/8] [CEA]-[CEA]- [CEA]3 |] %18
V:2
 z3 z2 [A,,A,] | [A,,A,][A,,A,][A,,A,] [A,,E,][A,,E,][A,,E,] | %2
 [D,F,D][D,F,D][D,F,D] [D,B,D]2 [D,B,D] | [E,B,D][E,B,D][E,A,D] [E,G,D][E,G,D][E,G,E] | %4
[M:5/8] [A,,A,]-[A,,A,]- [A,,A,]3 |[M:1/8] [A,,A,] | %6
[M:3/4] [A,,A,][A,,A,] [A,,A,][A,,E,] [A,,E,][A,,E,] | [D,F,D][D,F,D] [D,F,D] [D,A,D]2 [D,A,] | %8
 [E,A,E][E,A,E] [E,CE][E,DE] [E,CE][E,B,E] | A,,6 | [A,EA]3 [A,CA]2 [A,EA] | %11
 [E,E][E,E] [E,E] [E,E]2 [E,E] | [E,B,][E,B,] [E,B,][E,E] [E,E][E,E] | [A,EA]6 | %14
 [A,EA]3 [A,CE]2 [A,_G] | [D,A,][D,A,] [D,A,] [D,A,]2 [D,A,] | %16
 [E,A,E][E,A,E] [E,CE][E,DE] [E,CE][E,B,E] |[M:5/8] A,,-A,,- A,,3 |] %18

